ui/StatusQ/src/assets/img/icons/protocol/Protocol=Hop.svg

<svg fill="none" height="36" viewBox="0 0 36 36" width="36" xmlns="http://www.w3.org/2000/svg" xmlns:xlink="http://www.w3.org/1999/xlink"><linearGradient id="a"><stop offset=".15" stop-color="#b32eff"/><stop offset=".42" stop-color="#ce60d3"/><stop offset=".65" stop-color="#e185b3"/><stop offset=".84" stop-color="#ee9c9f"/><stop offset=".96" stop-color="#f2a498"/></linearGradient><linearGradient id="b" gradientUnits="userSpaceOnUse" x1="28.4876" x2="4.57995" xlink:href="#a" y1="25.8943" y2="-3.51434"/><linearGradient id="c" gradientUnits="userSpaceOnUse" x1="6.99969" x2="30.9074" xlink:href="#a" y1="9.4931" y2="38.9018"/><clipPath id="d"><path d="m8 8h20v20h-20z"/></clipPath><circle cx="18" cy="18" fill="#fff" r="17.5" stroke="#f6f8fa"/><g clip-path="url(#d)"><path d="m27.1385 14.4178-4.0717-5.93042c-.6394-.9295-2.0855-.43607-2.0382.69321.0433 1.02941.4275 2.11891 1.3471 3.45601l.0005.0025-.0011.0022-.0022.0013-.0025-.0004c-.3761-.2808-6.0478-4.54516-12.78958-2.2746h-.00761c-.74405.2792-1.1239.8886-.93558 1.6031.17429.6615.85184 1.0586 1.52537.9467 1.432-.2387 2.8532-.3522 4.2508-.2294 1.3976.1227 2.7647.4814 4.0376 1.1076 1.273.6262 2.4261 1.5124 3.4859 2.5273 1.192 1.1405 2.671 3.5728 2.671 3.5728.0866.1541.2249.2726.3903.3346.1655.062.3475.0636.514.0044.4007-.1437.5873-.6062.4367-1.003-.3142-.8293-.6988-1.6301-1.1495-2.3937l-.001-.0027.0009-.0026.0025-.0014.0028.0007c.4984.1877.9596.4216 1.5053.2937.4452-.1048.8358-.408 1.0173-.8325.1315-.3027.1831-.634.15-.9624-.0332-.3284-.1499-.6428-.3391-.913z" fill="url(#b)"/><path d="m8.34877 20.9696 4.07173 5.9304c.6394.9295 2.0855.4361 2.0382-.6932-.0433-1.0294-.4275-2.119-1.3471-3.456l-.0005-.0025.0011-.0023.0022-.0012.0024.0003c.3763.2808 6.0479 4.5452 12.7897 2.2747h.0076c.744-.2792 1.1239-.8886.9356-1.6031-.1743-.6615-.8519-1.0587-1.5254-.9468-1.4321.2387-2.8532.3523-4.2508.2295s-2.7647-.4814-4.0376-1.1076c-1.273-.6262-2.4262-1.5124-3.4859-2.5274-1.192-1.1405-2.6709-3.5727-2.6709-3.5727-.0867-.1541-.225-.2726-.3904-.3347-.1655-.062-.3475-.0635-.51398-.0043-.40068.1436-.58739.6062-.43674 1.0029.3142.8293.69882 1.6302 1.14952 2.3938l.0011.0026-.001.0027-.0025.0014-.0028-.0007c-.4984-.1878-.9596-.4216-1.50533-.2936-.44515.1046-.83581.408-1.01732.8323-.1314.3027-.18302.6341-.14991.9625.03312.3283.14985.6427.33903.913z" fill="url(#c)"/></g></svg>

<svg width="36" height="36" viewBox="0 0 36 36" fill="none" xmlns="http://www.w3.org/2000/svg">
<circle cx="18" cy="18" r="17.5" fill="white" stroke="#F6F8FA"/>
<g clip-path="url(#clip0_16679_212870)">
<path d="M27.1385 14.4178L23.0668 8.48738C22.4274 7.55788 20.9813 8.05131 21.0286 9.18059C21.0719 10.21 21.4561 11.2995 22.3757 12.6366L22.3762 12.6391L22.3751 12.6413L22.3729 12.6426L22.3704 12.6422C21.9943 12.3614 16.3226 8.09704 9.58082 10.3676H9.57321C8.82916 10.6468 8.44931 11.2562 8.63763 11.9707C8.81192 12.6322 9.48947 13.0293 10.163 12.9174C11.595 12.6787 13.0162 12.5652 14.4138 12.688C15.8114 12.8107 17.1785 13.1694 18.4514 13.7956C19.7244 14.4218 20.8775 15.308 21.9373 16.3229C23.1293 17.4634 24.6083 19.8957 24.6083 19.8957C24.6949 20.0498 24.8332 20.1683 24.9986 20.2303C25.1641 20.2923 25.3461 20.2939 25.5126 20.2347C25.9133 20.091 26.0999 19.6285 25.9493 19.2317C25.6351 18.4024 25.2505 17.6016 24.7998 16.838L24.7988 16.8353L24.7997 16.8327L24.8022 16.8313L24.805 16.832C25.3034 17.0197 25.7646 17.2536 26.3103 17.1257C26.7555 17.0209 27.1461 16.7177 27.3276 16.2932C27.4591 15.9905 27.5107 15.6592 27.4776 15.3308C27.4444 15.0024 27.3277 14.688 27.1385 14.4178Z" fill="url(#paint0_linear_16679_212870)"/>
<path d="M8.34877 20.9696L12.4205 26.9C13.0599 27.8295 14.506 27.3361 14.4587 26.2068C14.4154 25.1774 14.0312 24.0878 13.1116 22.7508L13.1111 22.7483L13.1122 22.746L13.1144 22.7448L13.1168 22.7451C13.4931 23.0259 19.1647 27.2903 25.9065 25.0198H25.9141C26.6581 24.7406 27.038 24.1312 26.8497 23.4167C26.6754 22.7552 25.9978 22.358 25.3243 22.4699C23.8922 22.7086 22.4711 22.8222 21.0735 22.6994C19.6759 22.5766 18.3088 22.218 17.0359 21.5918C15.7629 20.9656 14.6097 20.0794 13.55 19.0644C12.358 17.9239 10.8791 15.4917 10.8791 15.4917C10.7924 15.3376 10.6541 15.2191 10.4887 15.157C10.3232 15.095 10.1412 15.0935 9.97472 15.1527C9.57404 15.2963 9.38733 15.7589 9.53798 16.1556C9.85218 16.9849 10.2368 17.7858 10.6875 18.5494L10.6886 18.552L10.6876 18.5547L10.6851 18.5561L10.6823 18.5554C10.1839 18.3676 9.7227 18.1338 9.17697 18.2618C8.73182 18.3664 8.34116 18.6698 8.15965 19.0941C8.02825 19.3968 7.97663 19.7282 8.00974 20.0566C8.04286 20.3849 8.15959 20.6993 8.34877 20.9696Z" fill="url(#paint1_linear_16679_212870)"/>
</g>
<defs>
<linearGradient id="paint0_linear_16679_212870" x1="28.4876" y1="25.8943" x2="4.57995" y2="-3.51434" gradientUnits="userSpaceOnUse">
<stop offset="0.15" stop-color="#B32EFF"/>
<stop offset="0.42" stop-color="#CE60D3"/>
<stop offset="0.65" stop-color="#E185B3"/>
<stop offset="0.84" stop-color="#EE9C9F"/>
<stop offset="0.96" stop-color="#F2A498"/>
</linearGradient>
<linearGradient id="paint1_linear_16679_212870" x1="6.99969" y1="9.4931" x2="30.9074" y2="38.9018" gradientUnits="userSpaceOnUse">
<stop offset="0.15" stop-color="#B32EFF"/>
<stop offset="0.42" stop-color="#CE60D3"/>
<stop offset="0.65" stop-color="#E185B3"/>
<stop offset="0.84" stop-color="#EE9C9F"/>
<stop offset="0.96" stop-color="#F2A498"/>
</linearGradient>
<clipPath id="clip0_16679_212870">
<rect width="20" height="20" fill="white" transform="translate(8 8)"/>
</clipPath>
</defs>
</svg>
